svg/emoji_u1f996.svg

<?xml version="1.0" encoding="utf-8"?>
<!-- Generator: Adobe Illustrator 24.1.2, SVG Export Plug-In . SVG Version: 6.00 Build 0)  -->
<svg version="1.1" id="Layer_3" xmlns="http://www.w3.org/2000/svg" xmlns:xlink="http://www.w3.org/1999/xlink" x="0px" y="0px"
	 viewBox="0 0 128 128" style="enable-background:new 0 0 128 128;" xml:space="preserve">
<path style="fill:#E8DD9E;" d="M5.48,31.52l8.45,1.27l7.27,5.23c0,0-1.71,2.75-3.78,2.09c-2.18-0.69-1.83-3.59-1.83-3.59
	s-1.48,2.37-2.98,1.71c-1.9-0.83-1.78-3.47-1.78-3.47s-1.42,1.8-3.1,1.22C5.01,35.04,5.48,31.52,5.48,31.52z"/>
<path style="fill:#FF631A;" d="M34.57,31l-22.24-4.88l-5.82,0.75c0,0-2.16,3.47-1.97,4.13c0.19,0.66,0.56,1.31,1.78,1.69
	c1.22,0.38,5.91,1.31,7.7,2.25c1.78,0.94,7.13,4.97,7.13,4.97s-1.64,2.77-3.97,4.97c-1.11,1.05-7.11,5.07-7.11,5.07l8.92,1.88
	l15.86-9.48L34.57,31z"/>
<path style="fill:#596514;" d="M43.49,56.91c0,0-5.26-1.69-7.41,2.82c-2.16,4.5,0.39,6.01-1.78,8.35c-1.22,1.31-2.44-0.47-5.16,1.31
	c-2.04,1.33-3.1,4.41-2.72,7.04c0.38,2.63,1.88,6.01,3.57,5.73c1.69-0.28,1.13-3.94,1.13-3.94s1.29,3.47,2.91,3.47
	c2.35,0,1.03-5.35,1.69-5.73c0.66-0.38,4.06,0.58,6.38-0.66c2.82-1.5,5.26-10.89,5.26-10.89L43.49,56.91z"/>
<path style="fill:#596514;" d="M60.29,53.25c0,0-16.87,18.75-17.27,27.59c-0.34,7.6,3.38,12.01,7.23,14.27
	c3.85,2.25,8.54,3.47,8.54,8.07s-5.35,5.63-7.6,5.82c-2.25,0.19-5.54,0.73-8.28,2.18c-2.76,1.46-4.2,5.18-2.7,6.08
	c0.94,0.56,4.79-1.67,4.79-1.67s-1.33,3.33,0.38,3.64c2.86,0.52,7.79-2.53,7.79-2.53s-1.71,2.25-0.49,2.77
	c1.94,0.82,4.53-0.7,5.65-1.36c1.13-0.66,4.04-2.91,5.82-3c1.78-0.09,5.35,0.47,5.44-0.38c0.09-0.84-2.82-4.08-2.91-7.09
	c-0.09-3,2.06-6.24,2.06-9.15c0-2.91-6.48-4.79-6.1-9.85c0.14-1.95,12.12-17.04,11.92-23.56C74.23,54.65,60.29,53.25,60.29,53.25z"
	/>
<path style="fill:#596514;" d="M102.8,50.71c0,0,8.07-3.19,7.7-5.91s-7.32-4.13-9.2-4.32c-1.88-0.19-5.35-1.03-7.13-2.82
	c-1.78-1.78-2.44-4.13-1.41-4.6c1.03-0.47,5.35,1.6,5.35,1.6s11.36,0.47,12.95,0.75s12.11,5.82,8.35,11.07
	C115.66,51.75,102.8,50.71,102.8,50.71z"/>
<path style="fill:#FFFFFF;" d="M8.03,27.81c0,0,0.99,4.22,3.03,4.36c2.04,0.14,2.53-3.8,2.53-3.8l1.13-0.99c0,0-1.41,5,1.27,6.05
	c2.67,1.06,2.18-4.93,2.18-4.93l1.06,0.99c0,0,0.07,6.9,2.53,6.76c2.46-0.14,2.46-5.07,2.46-5.07l-6.97-7.04L8.03,27.81z"/>
<path style="fill:#E3D9A8;" d="M48.18,82.67c0,0-0.63,4.22,1.27,4.65s1.69-3.66,1.69-3.66L48.18,82.67z"/>
<path style="fill:#E3D9A8;" d="M53.44,85.39c0,0,0.28,4.08,2.11,3.73c1.83-0.35,0.63-5.07,0.63-5.07L53.44,85.39z"/>
<path style="fill:#FFFFFF;" d="M27.11,46.33c0,0-0.19-4.76-2.32-4.29c-1.17,0.26-1.9,1.83-2.04,3.94c-0.07,0.98-0.49,3.24-0.49,3.24
	h-0.84c0,0-0.35-4.15-2.32-3.73c-1.97,0.42-2.11,5.07-2.11,5.07l5.21,1.06L27.11,46.33z"/>
<path style="fill:#E3E0AA;" d="M15.33,49.54c0,0-0.14-4.72-2.04-4.43s-1.9,3.24-1.9,3.24S10.26,46.09,9,46.58s-1.03,2.32-0.12,4.15
	C9.75,52.49,15.33,49.54,15.33,49.54z"/>
<path style="fill:#FFFFFF;" d="M13.59,50.97c0,0,0.42-4.65-0.49-4.79c-0.92-0.14-0.92,1.27-0.92,1.97c0,0.7,0.14,3.03,0.14,3.03
	L13.59,50.97z"/>
<path style="fill:#96A820;" d="M39.26,24.18c0,0-0.73-3.94-3.68-4.86c-5.44-1.69-8.7,2.98-8.7,2.98s-4.11-0.23-6.66-1.22
	s-7.11-3.51-10.49-2.14c-2.77,1.13-4.15,3.82-4.9,6.92s-0.28,5.16-0.28,5.16s3.19-3.1,6.85-2.82c3.66,0.28,9.29,3.19,10.79,3.94
	c1.5,0.75,9.95,3.19,9.95,3.19s-1.69,5.35-2.91,6.85c-1.22,1.5-3.85,3.57-7.98,5.35c-4.13,1.78-12.2,3.1-12.2,3.1
	s0.56,6.57,2.82,7.6c2.25,1.03,6.29,1.88,9.29,0.56s13.8-2.25,13.8-2.25s1.69,0.75,3.1,2.35s3.28,3.57,4.13,5.91
	c0.84,2.35,1.69,4.97,2.44,6.48c0.75,1.5,2.53,5.16,2.53,5.16s1.41-2.82,3.38-3.47c1.97-0.66,4.6-0.19,4.6-0.19
	s-0.31-10.4,1.97-14.08c2.25-3.64,4.97-4.41,8.07-4.22c3.1,0.19,3.66,2.16,1.22,2.16s-6.08,0.87-7.39,3.78s-1.53,4.86-1.9,7.58
	c-0.38,2.72-0.38,6.1-0.38,6.1s-3.47-0.47-5.54,0.38c-2.06,0.84-3.38,3.57-3.57,5.44c-0.19,1.88,0.38,4.41,2.06,4.5
	c1.69,0.09,2.16-1.78,2.16-1.78s0.28,3.75,3.28,3.28c3-0.47,2.11-2.75,3.61-4.53s4.58-2.11,7.86-6.52c3.28-4.41,3.21-6.9,3.21-7.65
	s-0.16-2.86,0.87-2.96c1.03-0.09,1.15,2.04,1.15,2.98s-0.84,5.8-3.75,9.1c-2.32,2.64-6.38,4.69-7.6,6.48s-1.15,4.06-1.13,4.13
	c0.21,0.64,3.47,1.78,6.95,2.06c3.47,0.28,6.57-1.22,6.57-1.22s0,3.94,0.38,7.04c0.38,3.1,2.63,5.91,2.25,9.39
	c-0.38,3.47-2.25,6.29-3.57,7.04c-1.31,0.75-7.22,3.04-6.59,5.4c0.45,1.69,3.69,1.34,5.19,1.08c1.62-0.28,2.53-0.49,4.04-0.31
	c1.5,0.19,0.56,4.41,3.47,4.22c2.91-0.19,5.35-4.18,7.04-4.11c2.3,0.09,6.6,3.29,9.06,1.22c1.95-1.64-1.74-4.5-3.99-6.76
	s-4.5-5.54-4.32-11.26c0,0,0.38-9.01,0.47-11.64c0.09-2.63,0.09-7.32,0.09-7.32s4.41-3.28,6.48-5.54c2.06-2.25,2.35-3.85,5.91-6.95
	c3.57-3.1,12.29-2.56,21.3-10.79c4.45-4.07,6.1-13.7,0.19-20.46c-5.91-6.76-17.08-4.04-19.43-4.32c-2.35-0.28-5.91-2.25-7.46-1.43
	c-1.23,0.65-1.13,1.69-1.13,1.69s4.38,2.32,7.46,2.84c6.03,1.01,16.61-1.5,16.8,5.91s-19.71,7.98-21.59,7.79
	c-1.88-0.19-12.37-6.24-16.21-7.23c-3.41-0.87-8.35-1.73-11.94-1.5c-3.75,0.23-6.5,0.94-9.2,2.16c-1.31,0.59-2.18,1.29-2.18,1.29
	s-6.54-13.76-10.39-17.62C41.98,24.65,39.26,24.18,39.26,24.18z"/>
<path style="fill:#5A6610;" d="M33.44,34.15c-0.56-0.77-5.98-0.21-8.8-1.76c-2.82-1.55-9.92-5.77-14.01-5.49
	c-4.08,0.28-6.08,3.21-6.1,4.11c-0.02,0.89,0.68,0.89,1.53-0.02s2.67-2.6,6.41-1.97c3.73,0.63,10.91,5.14,13.73,6.26
	c2.82,1.13,5.14,0.42,5.14,0.42s-0.07,1.64-1.06,3.4c-0.99,1.76-4.01,5.77-2.42,4.69c1.83-1.24,4.01-4.17,4.55-5.42
	C33.12,36.75,33.44,34.15,33.44,34.15z"/>
<ellipse transform="matrix(0.8308 -0.5565 0.5565 0.8308 -8.313 22.4355)" style="fill:#31312F;" cx="32.75" cy="24.89" rx="2.61" ry="2.5"/>
<path style="fill:#586214;" d="M46.18,38.16c1.21-1.21,3.91,4.67,1.71,11.57c-1.13,3.54-4.46,6.73-10.23,7.93s-7.81,0.21-11.12,0.63
	s-7.25,3.24-12.6,1.62s-5.28-6.34-5.56-7.6c-0.28-1.27-0.09-1.76,0.66-1.69s0.92,4.16,1.99,5.65c0.96,1.34,3.73,2.77,6.15,2.51
	c3.24-0.35,3.8-1.76,9.43-2.75c5.63-0.99,12.32-0.14,16.4-6.19C47.5,43.19,45.13,39.22,46.18,38.16z"/>
<path style="fill:#586415;" d="M70.54,48.02c0.4,3.08-0.03,5.7-0.92,7.25c-0.77,1.36-3.07,1.36-3.07,1.36s-0.87-0.87-2.42-1.15
	c-1.55-0.28-1.48-1.55-1.55-3.45s-0.97-3.36-1.79-4.86c-0.99-1.79-2.67-3.45-2.67-3.45s1.17-0.79,4.66-1.53
	c2.54-0.54,4.81-0.45,4.81-0.45S70.12,44.78,70.54,48.02z"/>
<path style="fill:#586415;" d="M73.14,42.21c0,0,2.86,2.35,3.03,6.79c0.18,4.79-0.87,10.05,2.25,10.98
	c3.24,0.96,5.84-1.69,6.26-5.84c0.42-4.15-0.6-8.62-0.6-8.62s-2.96-1.44-5.38-2.22C77.34,42.86,73.14,42.21,73.14,42.21z"/>
<path style="fill:#586415;" d="M92.64,59.32c2.71,0.81,4.15-1.24,4.79-4.55s0.68-4.27,0.68-4.27s-2.04,0.14-3.28-0.05
	c-0.76-0.12-4.18-1.67-4.18-1.67s0.02,3.09,0.02,4.15C90.67,55.62,90.06,58.55,92.64,59.32z"/>
<path style="fill:#596514;" d="M80.11,79.13c-0.86,1.45-1.93,2.31-2.8,1.96c-0.87-0.34-1.1-1.82-0.65-3.44
	c0.57-2.09,2.03-2.58,2.9-2.24C80.43,75.75,81.13,77.41,80.11,79.13z"/>
<ellipse transform="matrix(0.1171 -0.9931 0.9931 0.1171 -21.5582 166.1349)" style="fill:#596514;" cx="82.66" cy="95.19" rx="1.73" ry="1.11"/>
<ellipse style="fill:#596514;" cx="82.33" cy="88.28" rx="1.3" ry="1.9"/>
</svg>

<?xml version="1.0" encoding="UTF-8" standalone="no"?>
<!DOCTYPE svg PUBLIC "-//W3C//DTD SVG 1.1//EN" "http://www.w3.org/Graphics/SVG/1.1/DTD/svg11.dtd">
<svg width="100%" height="100%" viewBox="0 0 128 128" version="1.1" xmlns="http://www.w3.org/2000/svg" xmlns:xlink="http://www.w3.org/1999/xlink" xml:space="preserve" xmlns:serif="http://www.serif.com/" style="fill-rule:evenodd;clip-rule:evenodd;stroke-linejoin:round;stroke-miterlimit:2;">
    <path d="M5.48,31.52L13.93,32.79L21.2,38.02C21.2,38.02 19.49,40.77 17.42,40.11C15.24,39.42 15.59,36.52 15.59,36.52C15.59,36.52 14.11,38.89 12.61,38.23C10.71,37.4 10.83,34.76 10.83,34.76C10.83,34.76 9.41,36.56 7.73,35.98C5.01,35.04 5.48,31.52 5.48,31.52Z" style="fill:rgb(255,244,143);fill-rule:nonzero;"/>
    <path d="M34.57,31L12.33,26.12L6.51,26.87C6.51,26.87 4.35,30.34 4.54,31C4.73,31.66 5.1,32.31 6.32,32.69C7.54,33.07 12.23,34 14.02,34.94C15.8,35.88 21.15,39.91 21.15,39.91C21.15,39.91 19.51,42.68 17.18,44.88C16.07,45.93 10.07,49.95 10.07,49.95L18.99,51.83L34.85,42.35L34.57,31Z" style="fill:rgb(237,108,48);fill-rule:nonzero;"/>
    <path d="M43.49,56.91C43.49,56.91 38.23,55.22 36.08,59.73C33.92,64.23 36.47,65.74 34.3,68.08C33.08,69.39 31.86,67.61 29.14,69.39C27.1,70.72 26.04,73.8 26.42,76.43C26.8,79.06 28.3,82.44 29.99,82.16C31.68,81.88 31.12,78.22 31.12,78.22C31.12,78.22 32.41,81.69 34.03,81.69C36.38,81.69 35.06,76.34 35.72,75.96C36.38,75.58 39.78,76.54 42.1,75.3C44.92,73.8 47.36,64.41 47.36,64.41L43.49,56.91Z" style="fill:rgb(122,113,31);fill-rule:nonzero;"/>
    <path d="M60.29,53.25C60.29,53.25 43.42,72 43.02,80.84C42.68,88.44 46.4,92.85 50.25,95.11C54.1,97.36 58.79,98.58 58.79,103.18C58.79,107.78 53.44,108.81 51.19,109C48.94,109.19 45.65,109.73 42.91,111.18C40.15,112.64 38.71,116.36 40.21,117.26C41.15,117.82 45,115.59 45,115.59C45,115.59 43.67,118.92 45.38,119.23C48.24,119.75 53.17,116.7 53.17,116.7C53.17,116.7 51.46,118.95 52.68,119.47C54.62,120.29 57.21,118.77 58.33,118.11C59.46,117.45 62.37,115.2 64.15,115.11C65.93,115.02 69.5,115.58 69.59,114.73C69.68,113.89 66.77,110.65 66.68,107.64C66.59,104.64 68.74,101.4 68.74,98.49C68.74,95.58 62.26,93.7 62.64,88.64C62.78,86.69 74.76,71.6 74.56,65.08C74.23,54.65 60.29,53.25 60.29,53.25Z" style="fill:rgb(122,113,31);fill-rule:nonzero;"/>
    <path d="M102.8,50.71C102.8,50.71 110.87,47.52 110.5,44.8C110.13,42.08 103.18,40.67 101.3,40.48C99.42,40.29 95.95,39.45 94.17,37.66C92.39,35.88 91.73,33.53 92.76,33.06C93.79,32.59 98.11,34.66 98.11,34.66C98.11,34.66 109.47,35.13 111.06,35.41C112.65,35.69 123.17,41.23 119.41,46.48C115.66,51.75 102.8,50.71 102.8,50.71Z" style="fill:rgb(122,113,31);fill-rule:nonzero;"/>
    <path d="M8.03,27.81C8.03,27.81 9.02,32.03 11.06,32.17C13.1,32.31 13.59,28.37 13.59,28.37L14.72,27.38C14.72,27.38 13.31,32.38 15.99,33.43C18.66,34.49 18.17,28.5 18.17,28.5L19.23,29.49C19.23,29.49 19.3,36.39 21.76,36.25C24.22,36.11 24.22,31.18 24.22,31.18L17.25,24.14L8.03,27.81Z" style="fill:rgb(248,249,233);fill-rule:nonzero;"/>
    <path d="M48.18,82.67C48.18,82.67 47.55,86.89 49.45,87.32C51.35,87.75 51.14,83.66 51.14,83.66L48.18,82.67Z" style="fill:rgb(255,244,143);fill-rule:nonzero;"/>
    <path d="M53.44,85.39C53.44,85.39 53.72,89.47 55.55,89.12C57.38,88.77 56.18,84.05 56.18,84.05L53.44,85.39Z" style="fill:rgb(255,244,143);fill-rule:nonzero;"/>
    <path d="M27.11,46.33C27.11,46.33 26.92,41.57 24.79,42.04C23.62,42.3 22.89,43.87 22.75,45.98C22.68,46.96 22.26,49.22 22.26,49.22L21.42,49.22C21.42,49.22 21.07,45.07 19.1,45.49C17.13,45.91 16.99,50.56 16.99,50.56L22.2,51.62L27.11,46.33Z" style="fill:rgb(248,249,233);fill-rule:nonzero;"/>
    <path d="M15.33,49.54C15.33,49.54 15.19,44.82 13.29,45.11C11.39,45.4 11.39,48.35 11.39,48.35C11.39,48.35 10.26,46.09 9,46.58C7.74,47.07 7.97,48.9 8.88,50.73C9.75,52.49 15.33,49.54 15.33,49.54Z" style="fill:rgb(255,244,143);fill-rule:nonzero;"/>
    <path d="M13.59,50.97C13.59,50.97 14.01,46.32 13.1,46.18C12.18,46.04 12.18,47.45 12.18,48.15C12.18,48.85 12.32,51.18 12.32,51.18L13.59,50.97Z" style="fill:rgb(248,249,233);fill-rule:nonzero;"/>
    <path d="M39.26,24.18C39.26,24.18 38.53,20.24 35.58,19.32C30.14,17.63 26.88,22.3 26.88,22.3C26.88,22.3 22.77,22.07 20.22,21.08C17.67,20.09 13.11,17.57 9.73,18.94C6.96,20.07 5.58,22.76 4.83,25.86C4.08,28.96 4.55,31.02 4.55,31.02C4.55,31.02 7.74,27.92 11.4,28.2C15.06,28.48 20.69,31.39 22.19,32.14C23.69,32.89 32.14,35.33 32.14,35.33C32.14,35.33 30.45,40.68 29.23,42.18C28.01,43.68 25.38,45.75 21.25,47.53C17.12,49.31 9.05,50.63 9.05,50.63C9.05,50.63 9.61,57.2 11.87,58.23C14.12,59.26 18.16,60.11 21.16,58.79C24.16,57.47 34.96,56.54 34.96,56.54C34.96,56.54 36.65,57.29 38.06,58.89C39.47,60.49 41.34,62.46 42.19,64.8C43.03,67.15 43.88,69.77 44.63,71.28C45.38,72.78 47.16,76.44 47.16,76.44C47.16,76.44 48.57,73.62 50.54,72.97C52.51,72.31 55.14,72.78 55.14,72.78C55.14,72.78 54.83,62.38 57.11,58.7C59.36,55.06 62.08,54.29 65.18,54.48C68.28,54.67 68.84,56.64 66.4,56.64C63.96,56.64 60.32,57.51 59.01,60.42C57.7,63.33 57.48,65.28 57.11,68C56.73,70.72 56.73,74.1 56.73,74.1C56.73,74.1 53.26,73.63 51.19,74.48C49.13,75.32 47.81,78.05 47.62,79.92C47.43,81.8 48,84.33 49.68,84.42C51.37,84.51 51.84,82.64 51.84,82.64C51.84,82.64 52.12,86.39 55.12,85.92C58.12,85.45 57.23,83.17 58.73,81.39C60.23,79.61 63.31,79.28 66.59,74.87C69.87,70.46 69.8,67.97 69.8,67.22C69.8,66.47 69.64,64.36 70.67,64.26C71.7,64.17 71.82,66.3 71.82,67.24C71.82,68.18 70.98,73.04 68.07,76.34C65.75,78.98 61.69,81.03 60.47,82.82C59.25,84.61 59.32,86.88 59.34,86.95C59.55,87.59 62.81,88.73 66.29,89.01C69.76,89.29 72.86,87.79 72.86,87.79C72.86,87.79 72.86,91.73 73.24,94.83C73.62,97.93 75.87,100.74 75.49,104.22C75.11,107.69 73.24,110.51 71.92,111.26C70.61,112.01 64.7,114.3 65.33,116.66C65.78,118.35 69.02,118 70.52,117.74C72.14,117.46 73.05,117.25 74.56,117.43C76.06,117.62 75.12,121.84 78.03,121.65C80.94,121.46 83.38,117.47 85.07,117.54C87.37,117.63 91.67,120.83 94.13,118.76C96.08,117.12 92.39,114.26 90.14,112C87.89,109.74 85.64,106.46 85.82,100.74C85.82,100.74 86.2,91.73 86.29,89.1C86.38,86.47 86.38,81.78 86.38,81.78C86.38,81.78 90.79,78.5 92.86,76.24C94.92,73.99 95.21,72.39 98.77,69.29C102.34,66.19 111.06,66.73 120.07,58.5C124.52,54.43 126.17,44.8 120.26,38.04C114.35,31.28 103.18,34 100.83,33.72C98.48,33.44 94.92,31.47 93.37,32.29C92.14,32.94 92.24,33.98 92.24,33.98C92.24,33.98 96.62,36.3 99.7,36.82C105.73,37.83 116.31,35.32 116.5,42.73C116.69,50.14 96.79,50.71 94.91,50.52C93.03,50.33 82.54,44.28 78.7,43.29C75.29,42.42 70.35,41.56 66.76,41.79C63.01,42.02 60.26,42.73 57.56,43.95C56.25,44.54 55.38,45.24 55.38,45.24C55.38,45.24 48.84,31.48 44.99,27.62C41.98,24.65 39.26,24.18 39.26,24.18Z" style="fill:rgb(165,169,54);fill-rule:nonzero;"/>
    <path d="M33.44,34.15C32.88,33.38 27.46,33.94 24.64,32.39C21.82,30.84 14.72,26.62 10.63,26.9C6.55,27.18 4.55,30.11 4.53,31.01C4.51,31.9 5.21,31.9 6.06,30.99C6.91,30.08 8.73,28.39 12.47,29.02C16.2,29.65 23.38,34.16 26.2,35.28C29.02,36.41 31.34,35.7 31.34,35.7C31.34,35.7 31.27,37.34 30.28,39.1C29.29,40.86 26.27,44.87 27.86,43.79C29.69,42.55 31.87,39.62 32.41,38.37C33.12,36.75 33.44,34.15 33.44,34.15Z" style="fill:rgb(122,113,31);fill-rule:nonzero;"/>
    <g transform="matrix(0.8308,-0.5565,0.5565,0.8308,-8.313,22.4355)">
        <ellipse cx="32.75" cy="24.89" rx="2.61" ry="2.5" style="fill:rgb(49,49,47);"/>
    </g>
    <path d="M46.18,38.16C47.39,36.95 50.09,42.83 47.89,49.73C46.76,53.27 43.43,56.46 37.66,57.66C31.89,58.86 29.85,57.87 26.54,58.29C23.23,58.71 19.29,61.53 13.94,59.91C8.59,58.29 8.66,53.57 8.38,52.31C8.1,51.04 8.29,50.55 9.04,50.62C9.79,50.69 9.96,54.78 11.03,56.27C11.99,57.61 14.76,59.04 17.18,58.78C20.42,58.43 20.98,57.02 26.61,56.03C32.24,55.04 38.93,55.89 43.01,49.84C47.5,43.19 45.13,39.22 46.18,38.16Z" style="fill:rgb(122,113,31);fill-rule:nonzero;"/>
    <path d="M70.54,48.02C70.94,51.1 70.51,53.72 69.62,55.27C68.85,56.63 66.55,56.63 66.55,56.63C66.55,56.63 65.68,55.76 64.13,55.48C62.58,55.2 62.65,53.93 62.58,52.03C62.51,50.13 61.61,48.67 60.79,47.17C59.8,45.38 58.12,43.72 58.12,43.72C58.12,43.72 59.29,42.93 62.78,42.19C65.32,41.65 67.59,41.74 67.59,41.74C67.59,41.74 70.12,44.78 70.54,48.02Z" style="fill:rgb(122,113,31);fill-rule:nonzero;"/>
    <path d="M73.14,42.21C73.14,42.21 76,44.56 76.17,49C76.35,53.79 75.3,59.05 78.42,59.98C81.66,60.94 84.26,58.29 84.68,54.14C85.1,49.99 84.08,45.52 84.08,45.52C84.08,45.52 81.12,44.08 78.7,43.3C77.34,42.86 73.14,42.21 73.14,42.21Z" style="fill:rgb(122,113,31);fill-rule:nonzero;"/>
    <path d="M92.64,59.32C95.35,60.13 96.79,58.08 97.43,54.77C98.07,51.46 98.11,50.5 98.11,50.5C98.11,50.5 96.07,50.64 94.83,50.45C94.07,50.33 90.65,48.78 90.65,48.78C90.65,48.78 90.67,51.87 90.67,52.93C90.67,55.62 90.06,58.55 92.64,59.32Z" style="fill:rgb(122,113,31);fill-rule:nonzero;"/>
    <path d="M80.11,79.13C79.25,80.58 78.18,81.44 77.31,81.09C76.44,80.75 76.21,79.27 76.66,77.65C77.23,75.56 78.69,75.07 79.56,75.41C80.43,75.75 81.13,77.41 80.11,79.13Z" style="fill:rgb(122,113,31);fill-rule:nonzero;"/>
    <g transform="matrix(0.1171,-0.9931,0.9931,0.1171,-21.5582,166.135)">
        <ellipse cx="82.66" cy="95.19" rx="1.73" ry="1.11" style="fill:rgb(122,113,31);"/>
    </g>
    <ellipse cx="82.33" cy="88.28" rx="1.3" ry="1.9" style="fill:rgb(122,113,31);"/>
</svg>
